icons/square/48/mkv-extractor-gui.svg

<svg xmlns="http://www.w3.org/2000/svg" width="48" viewBox="0 0 13.546667 13.546667" height="48">
 <defs>
  <clipPath>
   <rect width="20" x="1" y="1" rx="2" height="20" fill="#fff" fill-rule="evenodd"/>
  </clipPath>
  <clipPath>
   <rect width="84" x="6" y="6" rx="6" height="84" fill="#fff"/>
  </clipPath>
  <clipPath>
   <path d="M 54.1,12.5 12.9,54.7 C -2.7,70.3 23,69 32.3,74.9 36.6,77.7 18.5,81.3 22.2,85 c 3.6,3.7 21.7,7.1 25.3,10.7 3.6,3.7 -7.3,7.6 -3.7,11.3 3.5,3.7 11.9,0.2 13.4,8.6 1.1,6.2 15.4,3.1 21.8,-2.2 4,-3.4 -6.9,-3.4 -3.3,-7.1 9,-9.1 17,-4.1 20.3,-12.5 1.8,-4.5 -13.6,-7.7 -9.5,-10.6 9.8,-6.9 45.8,-10.4 29.2,-27 L 73,12.5 c -5.3,-5 -14,-5 -18.9,0 z m -9.9,64.7 c 0.9,0 30.8,4 19.3,7.1 -4.4,1.2 -24.6,-7.1 -19.3,-7.1 z m 57.2,16.6 c 0,2.1 16.3,3.3 15.4,-0.5 -1.3,-6.4 -13.6,-5.9 -15.4,0.5 z m -69.5,11.1 c 3.7,3.2 9.3,-0.7 11.1,-5.2 -3.6,-4.7 -16.9,0.3 -11.1,5.2 z m 67.5,-6.7 c -4.6,4.2 0.8,8.6 5.3,5.7 1.2,-0.8 -0.1,-4.7 -5.3,-5.7 z"/>
  </clipPath>
  <clipPath>
   <rect width="96" x="-100" height="96" fill="#fff"/>
  </clipPath>
  <clipPath>
   <path d="M 95.311,352.545 L 476.403,352.545 L 476.403,71.4229 L 95.311,71.4229 L 95.311,352.545 z"/>
  </clipPath>
  <clipPath>
   <path d="M 93.311,354.545 L 478.511,354.545 L 478.511,69.1846 L 93.311,69.1846 L 93.311,354.545 z"/>
  </clipPath>
  <clipPath>
   <path d="M 93.311,69.185 L 478.511,69.185 L 478.511,354.545 L 93.311,354.545 L 93.311,69.185 z"/>
  </clipPath>
  <clipPath>
   <path d="M 92.311,355.545 L 479.511,355.545 L 479.511,68.1846 L 92.311,68.1846 L 92.311,355.545 z"/>
  </clipPath>
 </defs>
 <g transform="matrix(0.28222223,0,0,0.28222223,1.0614729e-7,-283.45334)">
  <path d="M 5.1875,1 C 2.8707723,1 1,2.8707723 1,5.1875 l 0,37.625 C 1,45.129228 2.8707723,47 5.1875,47 l 37.625,0 C 45.129228,47 47,45.129228 47,42.8125 L 47,5.1875 C 47,2.8707723 45.129228,1 42.8125,1 L 5.1875,1 z m 0.1875,0.25 37.25,0 c 2.291546,0 4.125,1.8334541 4.125,4.125 l 0,37.25 c 0,2.291546 -1.833454,4.125 -4.125,4.125 l -37.25,0 C 3.0834541,46.75 1.25,44.916546 1.25,42.625 l 0,-37.25 C 1.25,3.0834541 3.0834541,1.25 5.375,1.25 z" transform="translate(0,1004.3622)" opacity="0.05"/>
  <path d="M 5.375,1.25 C 3.0834541,1.25 1.25,3.0834541 1.25,5.375 l 0,37.25 c 0,2.291546 1.8334541,4.125 4.125,4.125 l 37.25,0 c 2.291546,0 4.125,-1.833454 4.125,-4.125 l 0,-37.25 C 46.75,3.0834541 44.916546,1.25 42.625,1.25 l -37.25,0 z m 0.21875,0.25 36.8125,0 C 44.672614,1.5 46.5,3.3273859 46.5,5.59375 l 0,36.8125 C 46.5,44.672614 44.672614,46.5 42.40625,46.5 l -36.8125,0 C 3.3273859,46.5 1.5,44.672614 1.5,42.40625 l 0,-36.8125 C 1.5,3.3273859 3.3273859,1.5 5.59375,1.5 z" transform="translate(0,1004.3622)" opacity="0.1"/>
  <path d="M 5.59375,1.5 C 3.3273859,1.5 1.5,3.3273859 1.5,5.59375 l 0,36.8125 C 1.5,44.672614 3.3273859,46.5 5.59375,46.5 l 36.8125,0 C 44.672614,46.5 46.5,44.672614 46.5,42.40625 l 0,-36.8125 C 46.5,3.3273859 44.672614,1.5 42.40625,1.5 l -36.8125,0 z m 0.09375,0.125 36.625,0 c 2.253773,0 4.0625,1.8087269 4.0625,4.0625 l 0,36.625 c 0,2.253773 -1.808727,4.0625 -4.0625,4.0625 l -36.625,0 c -2.2537731,0 -4.0625,-1.808727 -4.0625,-4.0625 l 0,-36.625 C 1.625,3.4337269 3.4337269,1.625 5.6875,1.625 z" transform="translate(0,1004.3622)" opacity="0.2"/>
  <path d="M 5.6875,1.625 C 3.4337269,1.625 1.625,3.4337269 1.625,5.6875 l 0,36.625 c 0,2.253773 1.8087269,4.0625 4.0625,4.0625 l 36.625,0 c 2.253773,0 4.0625,-1.808727 4.0625,-4.0625 l 0,-36.625 c 0,-2.2537731 -1.808727,-4.0625 -4.0625,-4.0625 l -36.625,0 z m 0.09375,0.125 36.4375,0 c 2.241182,0 4.03125,1.7900679 4.03125,4.03125 l 0,36.4375 c 0,2.241182 -1.790068,4.03125 -4.03125,4.03125 l -36.4375,0 C 3.5400679,46.25 1.75,44.459932 1.75,42.21875 l 0,-36.4375 C 1.75,3.5400679 3.5400679,1.75 5.78125,1.75 z" transform="translate(0,1004.3622)" opacity="0.3"/>
  <path d="M 5.78125,1.75 C 3.5400679,1.75 1.75,3.5400679 1.75,5.78125 l 0,36.4375 c 0,2.241182 1.7900679,4.03125 4.03125,4.03125 l 36.4375,0 c 2.241182,0 4.03125,-1.790068 4.03125,-4.03125 l 0,-36.4375 C 46.25,3.5400679 44.459932,1.75 42.21875,1.75 l -36.4375,0 z m 0.125,0.125 36.1875,0 c 2.228591,0 4.03125,1.802659 4.03125,4.03125 l 0,36.1875 c 0,2.228591 -1.802659,4.03125 -4.03125,4.03125 l -36.1875,0 C 3.677659,46.125 1.875,44.322341 1.875,42.09375 l 0,-36.1875 C 1.875,3.677659 3.677659,1.875 5.90625,1.875 z" transform="translate(0,1004.3622)" opacity="0.4"/>
  <rect rx="4.02" y="1006.24" x="1.875" height="44.25" width="44.25" opacity="0.5"/>
 </g>
 <rect rx="1.129" y="0.564" x="0.564" height="12.418" width="12.418" fill="#4d4d4d"/>
 <rect width="6.773" height="4.516" x="3.387" y="5.644" rx="0.5" ry="0.444" fill="#c66f92"/>
 <path d="M 3.3866667,5.6444446 9.877778,4.5628629 C 10.16,4.4968468 10.16,4.4050011 10.16,4.2333334 l 0,-0.5644444 C 10.16,3.5426805 10.031383,3.4528522 9.877778,3.4523207 L 3.668889,4.4204976 C 3.3866667,4.5155557 3.3866667,4.6500813 3.3866667,4.7977779 z" fill="#c66f92"/>
 <rect width="3" height="6" x="12" y="18" transform="scale(0.28222223,0.28222223)" rx="0.5" ry="0.444" fill="#c66f92"/>
 <path d="M 4.1219078,4.6851301 C 3.9744117,4.8318293 3.8769301,4.9754309 4.0240109,5.1225516 l 4.9499332,4.9521604 c 0.14708,0.147156 0.3292822,0.08835 0.4767806,-0.05837 C 9.5982208,9.8696472 9.6576978,9.6880355 9.5106172,9.5408973 L 4.5606848,4.5887216 C 4.4136039,4.4415647 4.2694063,4.5384139 4.1219078,4.6851301 z M 5.065047,5.6286862 C 5.140532,5.5536022 5.2112524,5.5072731 5.2865455,5.5826022 l 4.0898999,4.0917629 c 0.075269,0.075276 0.015977,0.1330611 -0.0595,0.2081451 -0.075484,0.0751 -0.1341667,0.1334488 -0.2088298,0.05877 L 5.0182124,5.8494971 C 4.9429432,5.7742201 4.9895586,5.7037662 5.0650432,5.628684 z" fill="#f9f9f9" color="#000000"/>
 <path d="M 5.2211118,7.4788891 5.0447226,8.0080559 4.5155557,8.1844446 5.0447226,8.3608333 5.2211118,8.8900002 5.3975003,8.3608333 5.9266673,8.1844446 5.3975003,8.0080559 z" fill="#f9f9f9"/>
 <path d="M 8.8900003,4.6566668 8.643056,5.3974998 7.9022224,5.6444449 8.643056,5.8913886 8.8900003,6.6322224 9.1369454,5.8913886 9.877778,5.6444449 9.1369454,5.3974998 z" fill="#f9f9f9"/>
 <path d="M 6.35,4.3744446 6.1736116,4.9036114 5.6444446,5.0800002 6.1736116,5.2563888 6.35,5.7855557 6.5263892,5.2563888 7.0555562,5.0800002 6.5263892,4.9036114 z" fill="#f9f9f9"/>
</svg>

<svg width="48" height="48" viewBox="0 0 13.547 13.547" xmlns="http://www.w3.org/2000/svg">
 <g transform="matrix(.28222 0 0 .28222 1.0615e-7 -283.45)">
  <path transform="translate(0 1004.4)" d="m5.1875 1c-2.3167 0-4.1875 1.8708-4.1875 4.1875v37.625c0 2.3167 1.8708 4.1875 4.1875 4.1875h37.625c2.3167 0 4.1875-1.8708 4.1875-4.1875v-37.625c0-2.3167-1.8708-4.1875-4.1875-4.1875h-37.625zm0.1875 0.25h37.25c2.2915 0 4.125 1.8335 4.125 4.125v37.25c0 2.2915-1.8335 4.125-4.125 4.125h-37.25c-2.2915 0-4.125-1.8335-4.125-4.125v-37.25c0-2.2915 1.8335-4.125 4.125-4.125z" opacity=".05"/>
  <path transform="translate(0 1004.4)" d="m5.375 1.25c-2.2915 0-4.125 1.8335-4.125 4.125v37.25c0 2.2915 1.8335 4.125 4.125 4.125h37.25c2.2915 0 4.125-1.8335 4.125-4.125v-37.25c0-2.2915-1.8335-4.125-4.125-4.125h-37.25zm0.21875 0.25h36.812c2.2664 0 4.0938 1.8274 4.0938 4.0938v36.812c0 2.2664-1.8274 4.0938-4.0938 4.0938h-36.812c-2.2664 0-4.0938-1.8274-4.0938-4.0938v-36.812c0-2.2664 1.8274-4.0938 4.0938-4.0938z" opacity=".1"/>
  <path transform="translate(0 1004.4)" d="m5.5938 1.5c-2.2664 0-4.0938 1.8274-4.0938 4.0938v36.812c0 2.2664 1.8274 4.0938 4.0938 4.0938h36.812c2.2664 0 4.0938-1.8274 4.0938-4.0938v-36.812c0-2.2664-1.8274-4.0938-4.0938-4.0938h-36.812zm0.09375 0.125h36.625c2.2538 0 4.0625 1.8087 4.0625 4.0625v36.625c0 2.2538-1.8087 4.0625-4.0625 4.0625h-36.625c-2.2538 0-4.0625-1.8087-4.0625-4.0625v-36.625c0-2.2538 1.8087-4.0625 4.0625-4.0625z" opacity=".2"/>
  <path transform="translate(0 1004.4)" d="m5.6875 1.625c-2.2538 0-4.0625 1.8087-4.0625 4.0625v36.625c0 2.2538 1.8087 4.0625 4.0625 4.0625h36.625c2.2538 0 4.0625-1.8087 4.0625-4.0625v-36.625c0-2.2538-1.8087-4.0625-4.0625-4.0625h-36.625zm0.09375 0.125h36.438c2.2412 0 4.0312 1.7901 4.0312 4.0312v36.438c0 2.2412-1.7901 4.0312-4.0312 4.0312h-36.438c-2.2412 0-4.0312-1.7901-4.0312-4.0312v-36.438c0-2.2412 1.7901-4.0312 4.0312-4.0312z" opacity=".3"/>
  <path transform="translate(0 1004.4)" d="m5.7812 1.75c-2.2412 0-4.0312 1.7901-4.0312 4.0312v36.438c0 2.2412 1.7901 4.0312 4.0312 4.0312h36.438c2.2412 0 4.0312-1.7901 4.0312-4.0312v-36.438c0-2.2412-1.7901-4.0312-4.0312-4.0312h-36.438zm0.125 0.125h36.188c2.2286 0 4.0312 1.8027 4.0312 4.0312v36.188c0 2.2286-1.8027 4.0312-4.0312 4.0312h-36.188c-2.2286 0-4.0312-1.8027-4.0312-4.0312v-36.188c0-2.2286 1.8027-4.0312 4.0312-4.0312z" opacity=".4"/>
  <rect x="1.875" y="1006.2" width="44.25" height="44.25" rx="4.02" opacity=".5"/>
 </g>
 <rect x=".564" y=".564" width="12.418" height="12.418" rx="1.129" fill="#4d4d4d"/>
 <g fill="#c66f92">
  <rect x="3.387" y="5.644" width="6.773" height="4.516" rx=".5" ry=".444"/>
  <path d="m3.3867 5.6444 6.4911-1.0816c0.28222-0.066016 0.28222-0.15786 0.28222-0.32953v-0.56444c0-0.12621-0.12862-0.21604-0.28222-0.21657l-6.2089 0.96818c-0.28222 0.095058-0.28222 0.22958-0.28222 0.37728z"/>
  <rect transform="scale(.28222)" x="12" y="18" width="3" height="6" rx=".5" ry=".444"/>
 </g>
 <g fill="#f9f9f9">
  <path d="m4.1219 4.6851c-0.1475 0.1467-0.24498 0.2903-0.097897 0.43742l4.9499 4.9522c0.14708 0.14716 0.32928 0.08835 0.47678-0.05837 0.1475-0.14669 0.20697-0.32831 0.059892-0.47544l-4.9499-4.9522c-0.14708-0.14716-0.29128-0.050308-0.43878 0.096408zm0.94314 0.94356c0.075485-0.075084 0.14621-0.12141 0.2215-0.046084l4.0899 4.0918c0.075269 0.075276 0.015977 0.13306-0.0595 0.20815-0.075484 0.0751-0.13417 0.13345-0.20883 0.05877l-4.0899-4.0918c-0.075269-0.075277-0.028654-0.14573 0.046831-0.22081z" color="#000000"/>
  <path d="m5.2211 7.4789-0.17639 0.52917-0.52917 0.17639 0.52917 0.17639 0.17639 0.52917 0.17639-0.52917 0.52917-0.17639-0.52917-0.17639z"/>
  <path d="m8.89 4.6567-0.24694 0.74083-0.74083 0.24695 0.74083 0.24694 0.24694 0.74083 0.24695-0.74083 0.74083-0.24694-0.74083-0.24695z"/>
  <path d="m6.35 4.3744-0.17639 0.52917-0.52917 0.17639 0.52917 0.17639 0.17639 0.52917 0.17639-0.52917 0.52917-0.17639-0.52917-0.17639z"/>
 </g>
</svg>
